src/icons/svgs/16/share-from-square.svg

<svg width="16" height="16" viewBox="0 0 16 16" fill="none" xmlns="http://www.w3.org/2000/svg">
<path d="M14.8391 4.36929L11.4336 1.12456C11.1357 0.841106 10.6663 1.07148 10.6663 1.5129V3.25406C7.44349 3.29233 4.88875 3.96077 4.88875 7.11863C4.88875 8.39351 5.68316 9.65666 6.56062 10.3164C6.8346 10.5226 7.22458 10.2639 7.12347 9.92995C6.21351 6.92141 7.7775 6.25932 10.6663 6.23819V7.98029C10.6663 8.42216 11.1366 8.65154 11.434 8.36792L14.8396 5.12319C15.0535 4.93982 15.0535 4.57356 14.8391 4.36929ZM11.3884 10.0159C10.9897 10.0159 10.6663 10.3523 10.6663 10.7672V11.4974L3.44438 11.4974V4.00538H4.16656C4.56535 4.00538 4.88875 3.66916 4.88875 3.25406C4.88875 2.83896 4.56602 2.50275 4.16656 2.50275H3.44438C2.64658 2.50275 2 3.17541 2 4.00538V11.4974C2 12.3271 2.64658 13 3.44438 13L10.6663 13C11.464 13 12.1106 12.3271 12.1106 11.4974V10.7672C12.1106 10.3516 11.7879 10.0159 11.3884 10.0159Z" fill="black"/>
</svg>

<svg width="16" height="16" viewBox="0 0 16 16" xmlns="http://www.w3.org/2000/svg">
    <path d="m14.84 4.37-3.406-3.245c-.298-.284-.768-.054-.768.388v1.741c-3.223.038-5.777.707-5.777 3.865 0 1.275.794 2.538 1.672 3.197.274.207.664-.052.562-.386-.91-3.009.654-3.67 3.543-3.692V7.98c0 .442.47.672.768.388l3.406-3.245c.213-.183.213-.55 0-.754Zm-3.452 5.646c-.398 0-.722.336-.722.751v.73H3.444V4.005h.723c.398 0 .722-.336.722-.75 0-.416-.323-.752-.722-.752h-.723C2.647 2.503 2 3.175 2 4.005v7.492C2 12.327 2.647 13 3.444 13h7.222c.798 0 1.445-.673 1.445-1.503v-.73a.737.737 0 0 0-.723-.751Z"/>
</svg>
